X:9611
T:Lilting Banshee
M:6/8
L:1/8
R:Jig
K:G maj
|:EAA EAA|BABG2A|Bee Bdd|BAB GED|EAA EAA|BABG2A|Bee edB|dBAA3:|:ea
a age|dBAG2A|Bee edB|def gfg|a>ba age|dBAG2A|Bee edB|dBAA3:|
